X: 9712
T: Dédicado à Joe
R: reel
M: 4/4
K: Bminor
F4|:B2Bc d2e2|fgfd B2f2|fgfd c2f2|fgfd B2F2|
B2Bc d2e2|fgfd B2 ff|fgfe dedc|1 B4 F4:|2 B4 A4||
K: Dmaj
|:f6 f2|g4 ^g4|aaa4 b2|a2g2 f2e2|aa a4 b2|
a2g2 f2e2|1 f2df dfdf|cfcf BfAf:|2 d3A BABc|d4 c4||

